src/Components/LexicalTextEditor/images/icons/tables.svg

<svg width="16" height="16" fill="currentColor" class="insert-table
" viewBox="0 0 24 24" xmlns="http://www.w3.org/2000/svg">
<path d="M23.3224 1.52355C22.8703 1.07157 22.3273 0.845703 21.6924 0.845703H2.30775C1.67315 0.845703 1.12983 1.07157 0.677847 1.52355C0.225966 1.97563 0 2.51875 0 3.1535V18.8459C0 19.4807 0.225966 20.0234 0.677847 20.4757C1.12983 20.9278 1.6731 21.1534 2.30775 21.1534H21.6924C22.3272 21.1534 22.8702 20.9278 23.3224 20.4757C23.7742 20.0234 24.0001 19.4804 24.0001 18.8459V3.1535C24.0001 2.51875 23.7742 1.97548 23.3224 1.52355ZM7.38483 18.8454C7.38483 18.9804 7.34143 19.0907 7.2548 19.1774C7.16831 19.2638 7.05783 19.3068 6.92305 19.3068H2.30775C2.17327 19.3068 2.06259 19.2637 1.976 19.1774C1.88946 19.0907 1.84627 18.9804 1.84627 18.8454V16.076C1.84627 15.9412 1.88946 15.8309 1.976 15.7446C2.06259 15.6578 2.17327 15.6146 2.30775 15.6146H6.9232C7.05793 15.6146 7.16861 15.6578 7.25495 15.7446C7.34138 15.8309 7.38478 15.9412 7.38478 16.076L7.38483 18.8454ZM7.38483 13.3072C7.38483 13.4417 7.34143 13.5524 7.2548 13.6388C7.16831 13.7254 7.05783 13.7686 6.92305 13.7686H2.30775C2.17327 13.7686 2.06259 13.7254 1.976 13.6388C1.88946 13.5524 1.84627 13.4417 1.84627 13.3072V10.5379C1.84627 10.4033 1.88946 10.2927 1.976 10.2061C2.06259 10.1198 2.17327 10.0766 2.30775 10.0766H6.9232C7.05793 10.0766 7.16841 10.1197 7.25495 10.2061C7.34138 10.2927 7.38478 10.4033 7.38478 10.5379L7.38483 13.3072ZM7.38483 7.76875C7.38483 7.90343 7.34143 8.01391 7.2548 8.1005C7.16831 8.18683 7.05783 8.23023 6.92305 8.23023H2.30775C2.17327 8.23023 2.06259 8.18683 1.976 8.1005C1.88946 8.01386 1.84627 7.90343 1.84627 7.76875V4.99952C1.84627 4.86484 1.88946 4.75421 1.976 4.66777C2.06259 4.58123 2.17327 4.53804 2.30775 4.53804H6.9232C7.05793 4.53804 7.16841 4.58123 7.25495 4.66777C7.34138 4.75421 7.38478 4.86484 7.38478 4.99952L7.38483 7.76875ZM14.7695 18.8454C14.7695 18.9804 14.7263 19.0907 14.64 19.1774C14.5535 19.2638 14.443 19.3068 14.3081 19.3068H9.69233C9.5578 19.3068 9.44716 19.2637 9.36058 19.1774C9.27404 19.0907 9.23085 18.9804 9.23085 18.8454V16.076C9.23085 15.9412 9.27404 15.8309 9.36058 15.7446C9.44716 15.6578 9.5578 15.6146 9.69233 15.6146H14.3079C14.4427 15.6146 14.5533 15.6578 14.6398 15.7446C14.7259 15.8309 14.7691 15.9412 14.7691 16.076V18.8454L14.7695 18.8454ZM14.7695 13.3072C14.7695 13.4417 14.7263 13.5524 14.64 13.6388C14.5535 13.7254 14.443 13.7686 14.3081 13.7686H9.69233C9.5578 13.7686 9.44716 13.7254 9.36058 13.6388C9.27404 13.5524 9.23085 13.4417 9.23085 13.3072V10.5379C9.23085 10.4033 9.27404 10.2927 9.36058 10.2061C9.44716 10.1198 9.5578 10.0766 9.69233 10.0766H14.3079C14.4427 10.0766 14.5533 10.1197 14.6398 10.2061C14.7259 10.2927 14.7691 10.4033 14.7691 10.5379V13.3072H14.7695ZM14.7695 7.76875C14.7695 7.90343 14.7263 8.01391 14.64 8.1005C14.5535 8.18683 14.443 8.23023 14.3081 8.23023H9.69233C9.5578 8.23023 9.44716 8.18683 9.36058 8.1005C9.27404 8.01386 9.23085 7.90343 9.23085 7.76875V4.99952C9.23085 4.86484 9.27404 4.75421 9.36058 4.66777C9.44716 4.58123 9.5578 4.53804 9.69233 4.53804H14.3079C14.4427 4.53804 14.5533 4.58123 14.6398 4.66777C14.7259 4.75421 14.7691 4.86484 14.7691 4.99952V7.76875H14.7695ZM22.1538 18.8454C22.1538 18.9804 22.1106 19.0907 22.0244 19.1774C21.9376 19.2638 21.827 19.3068 21.6925 19.3068H17.0775C16.9424 19.3068 16.8318 19.2637 16.7456 19.1774C16.6591 19.0907 16.6162 18.9804 16.6162 18.8454V16.076C16.6162 15.9412 16.6591 15.8309 16.7456 15.7446C16.8318 15.6578 16.9424 15.6146 17.0775 15.6146H21.6925C21.827 15.6146 21.9377 15.6578 22.0244 15.7446C22.1106 15.8309 22.1538 15.9412 22.1538 16.076V18.8454ZM22.1538 13.3072C22.1538 13.4417 22.1106 13.5524 22.0244 13.6388C21.9376 13.7254 21.827 13.7686 21.6925 13.7686H17.0775C16.9424 13.7686 16.8318 13.7254 16.7456 13.6388C16.6591 13.5524 16.6162 13.4417 16.6162 13.3072V10.5379C16.6162 10.4033 16.6591 10.2927 16.7456 10.2061C16.8318 10.1198 16.9424 10.0766 17.0775 10.0766H21.6925C21.827 10.0766 21.9377 10.1197 22.0244 10.2061C22.1106 10.2927 22.1538 10.4033 22.1538 10.5379V13.3072ZM22.1538 7.76875C22.1538 7.90343 22.1106 8.01391 22.0244 8.1005C21.9376 8.18683 21.827 8.23023 21.6925 8.23023H17.0775C16.9424 8.23023 16.8318 8.18683 16.7456 8.1005C16.6591 8.01386 16.6162 7.90343 16.6162 7.76875V4.99952C16.6162 4.86484 16.6591 4.75421 16.7456 4.66777C16.8318 4.58123 16.9424 4.53804 17.0775 4.53804H21.6925C21.827 4.53804 21.9377 4.58123 22.0244 4.66777C22.1106 4.75421 22.1538 4.86484 22.1538 4.99952V7.76875Z" fill="black"/>
</svg>

<svg xmlns="http://www.w3.org/2000/svg" width="16" height="16" fill="currentColor" class="insert-table" viewBox="0 0 24 24"><path fill="#000" d="M23.322 1.524a2.222 2.222 0 0 0-1.63-.678H2.308c-.635 0-1.178.226-1.63.678A2.223 2.223 0 0 0 0 3.154v15.692c0 .635.226 1.177.678 1.63.452.452.995.677 1.63.677h19.384c.635 0 1.178-.225 1.63-.677.452-.453.678-.996.678-1.63V3.154a2.22 2.22 0 0 0-.678-1.63ZM7.385 18.845a.45.45 0 0 1-.13.332.45.45 0 0 1-.332.13H2.308a.45.45 0 0 1-.332-.13.45.45 0 0 1-.13-.332v-2.769c0-.135.043-.245.13-.331a.449.449 0 0 1 .332-.13h4.615a.447.447 0 0 1 .462.461v2.77Zm0-5.538a.449.449 0 0 1-.13.332.449.449 0 0 1-.332.13H2.308a.45.45 0 0 1-.332-.13.449.449 0 0 1-.13-.332v-2.77a.45.45 0 0 1 .13-.33.45.45 0 0 1 .332-.13h4.615a.45.45 0 0 1 .332.13.45.45 0 0 1 .13.33v2.77Zm0-5.538a.45.45 0 0 1-.13.332.45.45 0 0 1-.332.13H2.308a.45.45 0 0 1-.332-.13.45.45 0 0 1-.13-.332v-2.77c0-.134.043-.245.13-.331a.45.45 0 0 1 .332-.13h4.615c.135 0 .245.043.332.13a.45.45 0 0 1 .13.332v2.769Zm7.385 11.076a.45.45 0 0 1-.13.332.45.45 0 0 1-.332.13H9.692a.45.45 0 0 1-.331-.13.45.45 0 0 1-.13-.332v-2.769c0-.135.043-.245.13-.331a.449.449 0 0 1 .331-.13h4.616c.135 0 .245.043.332.13a.45.45 0 0 1 .13.331v2.77Zm0-5.538a.45.45 0 0 1-.13.332.449.449 0 0 1-.332.13H9.692a.45.45 0 0 1-.331-.13.449.449 0 0 1-.13-.332v-2.77a.45.45 0 0 1 .13-.33.45.45 0 0 1 .331-.13h4.616a.45.45 0 0 1 .332.13.45.45 0 0 1 .13.33v2.77Zm0-5.538a.45.45 0 0 1-.13.332.45.45 0 0 1-.332.13H9.692a.45.45 0 0 1-.331-.13.45.45 0 0 1-.13-.332v-2.77c0-.134.043-.245.13-.331a.45.45 0 0 1 .331-.13h4.616a.45.45 0 0 1 .332.13.45.45 0 0 1 .13.332v2.769Zm7.384 11.076a.45.45 0 0 1-.13.332.45.45 0 0 1-.332.13h-4.614a.449.449 0 0 1-.332-.13.45.45 0 0 1-.13-.332v-2.769a.447.447 0 0 1 .461-.461h4.616a.45.45 0 0 1 .331.13c.087.086.13.196.13.331v2.77Zm0-5.538a.45.45 0 0 1-.13.332.45.45 0 0 1-.332.13h-4.614a.448.448 0 0 1-.332-.13.449.449 0 0 1-.13-.332v-2.77a.45.45 0 0 1 .13-.33.449.449 0 0 1 .332-.13h4.614a.45.45 0 0 1 .332.13.45.45 0 0 1 .13.33v2.77Zm0-5.538a.45.45 0 0 1-.13.332.451.451 0 0 1-.332.13h-4.614a.45.45 0 0 1-.332-.13.45.45 0 0 1-.13-.332v-2.77c0-.134.043-.245.13-.331a.448.448 0 0 1 .332-.13h4.614a.45.45 0 0 1 .332.13.45.45 0 0 1 .13.332v2.769Z"/></svg>
